X:198
T:B198-  How cruel is fortune grown
Q:1/4=120
L:1/4
M:3/4
K:Em
e|B3/2c/2B|AF2|E2B|^c3/2d/2B|\
^cd3/2e/2|^d2e|B3/2c/2B|AF2|\
E2^c|d3/2e/2d|c/2B/2A3/2G/2|G2f|\
g3/2f/2e|g/2f/2^d2|e2d/2c/2|d3/2c/2B|\
c(B/2A/2) (B/2c/2)|A2G|B3/2c/2d|\
^c(d/2c/2 d/2e/2)|^d2e|B3/2c/2B|(A/2G/2)F2|.E2|]
